X: 28578
T: Murphy's Hound
R: reel
M: 4/4
K: Gmajor
edBA G3A|Bdef g2~g2|edBA GFGA|egdB BA~A2|
edBA DEGA|Bdef g2fg|edBA G2 B/c/d|egdB BAAd||
ea~a2 b2ag|eaaf gedg|ea~a2 bgab|gedB BAAd|
ea~a2 b2ag|eaaf g3a|b2gf gfed|^cdef g2fg||

